X: 98
T:Green Grows The Rushes O. WI.098
M:C
Q:140
S:Wm Irwin, Folio MS, c1850. AGG's Transcription
R:Reel
O:England
A:Lake District
Z:vmp.Chris Partington.2005
K:G
D2|G/G/G (BA) B>GGB|A/A/A (ed) e>AAB|c2ce dBGB|A/B/c BA GEE:|!
|:D|G/G/G g>f gddf|e/e/e a>^g aeef|gage dBGB|A/B/c BA GEE:|]
